icons/chaplaincy.svg

<svg width="48" height="48" viewBox="0 0 48 48" fill="none" xmlns="http://www.w3.org/2000/svg">
<path fill-rule="evenodd" clip-rule="evenodd" d="M39 8H9C8.44771 8 8 8.44772 8 9V39C8 39.5523 8.44772 40 9 40H39C39.5523 40 40 39.5523 40 39V9C40 8.44771 39.5523 8 39 8ZM9 6C7.34315 6 6 7.34315 6 9V39C6 40.6569 7.34315 42 9 42H39C40.6569 42 42 40.6569 42 39V9C42 7.34315 40.6569 6 39 6H9Z" fill="black"/>
<path d="M18.0577 36.5L19.6211 37.5071C20.2866 37.9358 21.1626 37.458 21.1626 36.6664L21.1627 32.7586C21.1627 32.4514 21.0215 32.1613 20.7798 31.9717L14.0934 26.7277C13.6515 26.3811 13.0109 26.4663 12.6749 26.9163L10.5988 29.6977C10.2682 30.1407 10.3596 30.7678 10.803 31.0979L18.0577 36.5Z" fill="black"/>
<path d="M30.1065 36.5L28.5431 37.5071C27.8776 37.9358 27.0015 37.458 27.0015 36.6664L27.0015 32.7586C27.0015 32.4514 27.1427 32.1613 27.3844 31.9717L34.0707 26.7277C34.5127 26.3811 35.1533 26.4663 35.4892 26.9163L37.5654 29.6977C37.896 30.1407 37.8046 30.7678 37.3612 31.0979L30.1065 36.5Z" fill="black"/>
<path d="M32.4291 23.2748C32.3405 23.916 32.2526 24.5523 32.2722 25.2711L32.5015 26L27.4473 30L26.7181 29.1421C26.2443 28.4093 26 28 25.5 27C25 26 25 25 25 25C25 22.8892 25.0002 22.5973 25 19.0661C24.9999 18 26.1518 18.3417 26.746 18.8479C27.3402 19.354 27.4032 19.795 27.4032 19.795L27.9889 22.8892C27.9889 22.8892 27.9838 20.0948 27.8452 19.0661C27.7749 18.5449 27.2415 17.7514 26.746 16.8451C26.1989 15.8445 25.8571 15.3333 25.5001 14.5C24.1403 11.3272 25.9228 11.6798 26.7203 12.1438C27.5178 12.6078 31.4 16.6412 31.908 17.4108C32.3057 18.0135 32.3788 18.823 32.4612 19.7363C32.484 19.9892 32.5075 20.2501 32.5389 20.5167C32.6636 21.5777 32.5458 22.4306 32.4291 23.2748Z" fill="black"/>
<path d="M15.7351 23.2747C15.8237 23.916 15.9116 24.5523 15.892 25.2711L15.6627 25.9999L20.7168 29.9999L21.446 29.142C21.9198 28.4093 22.1642 27.9999 22.6642 26.9999C23.1642 25.9999 23.1642 24.9999 23.1642 24.9999C23.1642 22.8892 23.164 22.5972 23.1642 19.066C23.1642 18 22.0123 18.3417 21.4182 18.8478C20.824 19.354 20.761 19.795 20.761 19.795L20.1753 22.8892C20.1753 22.8892 20.1804 20.0947 20.319 19.066C20.3893 18.5449 20.9227 17.7514 21.4182 16.8451C21.9653 15.8444 22.307 15.3332 22.6641 14.5C24.0239 11.3271 22.2413 11.6797 21.4439 12.1438C20.6464 12.6078 16.7642 16.6412 16.2562 17.4107C15.8584 18.0134 15.7854 18.8229 15.703 19.7362C15.6802 19.9891 15.6567 20.25 15.6253 20.5167C15.5006 21.5777 15.6184 22.4305 15.7351 23.2747Z" fill="black"/>
</svg>

<svg
  xmlns="http://www.w3.org/2000/svg"
  width="24"
  height="24"
  viewBox="0 0 24 24"
  fill="none"
  stroke="currentColor"
  stroke-width="2"
  stroke-linecap="round"
  stroke-linejoin="round"
>
  <path
    fill-rule="evenodd"
    d="M39 8H9a1 1 0 0 0-1 1v30a1 1 0 0 0 1 1h30a1 1 0 0 0 1-1V9a1 1 0 0 0-1-1M9 6a3 3 0 0 0-3 3v30a3 3 0 0 0 3 3h30a3 3 0 0 0 3-3V9a3 3 0 0 0-3-3z"
    clip-rule="evenodd"
  />
  <path d="m18.058 36.5 1.563 1.007a1 1 0 0 0 1.542-.84v-3.908a1 1 0 0 0-.383-.787l-6.687-5.244a1 1 0 0 0-1.418.188l-2.076 2.782a1 1 0 0 0 .204 1.4z" />
  <path d="m30.107 36.5-1.564 1.007a1 1 0 0 1-1.541-.84v-3.908a1 1 0 0 1 .382-.787l6.687-5.244a1 1 0 0 1 1.418.188l2.076 2.782a1 1 0 0 1-.204 1.4z" />
  <path d="M32.43 23.275c-.09.641-.177 1.277-.158 1.996l.23.729-5.055 4-.729-.858A18.4 18.4 0 0 1 25.5 27c-.5-1-.5-2-.5-2v-5.934c0-1.066 1.152-.724 1.746-.218s.657.947.657.947l.586 3.094s-.005-2.794-.144-3.823c-.07-.521-.604-1.315-1.099-2.22-.547-1.001-.889-1.513-1.246-2.346-1.36-3.173.423-2.82 1.22-2.356.798.464 4.68 4.497 5.188 5.267.398.602.47 1.412.553 2.325q.033.38.078.78c.125 1.062.007 1.915-.11 2.759" />
  <path d="M15.735 23.275c.089.641.177 1.277.157 1.996l-.23.729 5.055 4 .729-.858c.474-.733.718-1.142 1.218-2.142s.5-2 .5-2v-5.934c0-1.066-1.152-.724-1.746-.218s-.657.947-.657.947l-.586 3.094s.005-2.794.144-3.823c.07-.521.604-1.315 1.1-2.22.546-1.002.888-1.513 1.245-2.346 1.36-3.173-.423-2.82-1.22-2.356-.798.464-4.68 4.497-5.188 5.267-.398.602-.47 1.412-.553 2.325-.023.253-.046.514-.078.78-.124 1.062-.007 1.915.11 2.759" />
</svg>
